production/_assets/svg/icon-running.svg

<svg xmlns="http://www.w3.org/2000/svg" width="14" height="14" viewBox="0 0 14 14">
  <g fill="#2D9FD8" fill-rule="evenodd">
    <path d="M12.5,7 C12.5,3.96243388 10.0375661,1.5 7,1.5 C3.96243388,1.5 1.5,3.96243388 1.5,7 C1.5,10.0375661 3.96243388,12.5 7,12.5 C10.0375661,12.5 12.5,10.0375661 12.5,7 Z M0,7 C0,3.13400675 3.13400675,0 7,0 C10.8659932,0 14,3.13400675 14,7 C14,10.8659932 10.8659932,14 7,14 C3.13400675,14 0,10.8659932 0,7 Z"/>
    <path d="M7,3 C9.209139,3 11,4.790861 11,7 C11,9.209139 9.209139,11 7,11 C5.65802855,11 4.47040669,10.3391508 3.74481446,9.32513253 L7,7 L7,3 L7,3 Z"/>
  </g>
</svg>

<svg xmlns="http://www.w3.org/2000/svg" viewBox="0 0 14 14" enable-background="new 0 0 14 14"><path d="M12.5,7c0-3-2.5-5.5-5.5-5.5S1.5,4,1.5,7S4,12.5,7,12.5S12.5,10,12.5,7z M0,7c0-3.9,3.1-7,7-7s7,3.1,7,7s-3.1,7-7,7
		S0,10.9,0,7z"/><path d="m7 3c2.2 0 4 1.8 4 4s-1.8 4-4 4c-1.3 0-2.5-.7-3.3-1.7l3.3-2.3v-4"/></svg>
